storage/app/icons/simpleicons/brands/youhodler.svg

<svg xmlns="http://www.w3.org/2000/svg" viewBox="0 0 24 24"><title>YouHodler</title><path d="m4.727 15.273-3.636-2.182V4.364L8.364 0 12 2.182 15.636 0l7.273 4.364v8.727l-3.636 2.182v4.363L12 24l-7.273-4.364zM12 19.636l2.422-1.454v-5.818l4.851-2.909v-2.91L16.85 5.092 12 8 7.15 5.092 4.727 6.545v2.91l4.851 2.909v5.818z"/></svg>

<svg role="img" viewBox="0 0 24 24" xmlns="http://www.w3.org/2000/svg"><title>YouHodler</title><path d="M4.727,15.273L1.091,13.091L1.091,4.364L8.364,0L12,2.182L15.636,0L22.909,4.364L22.909,13.091L19.273,15.273L19.273,19.636L12,24L4.727,19.636L4.727,15.273ZM12,19.636L14.422,18.182L14.422,12.364L19.273,9.455L19.273,6.545L16.85,5.092L12,8L7.15,5.092L4.727,6.545L4.727,9.455L9.578,12.364L9.578,18.182L12,19.636Z"/></svg>
